X: 4237
M: 6/8
L: 1/8
K: F
c !segno!|\
a |\
g2f e2d | e2f g2a | g2f e2d | c2B A2a |\
g2f e2d | e2f g2a | gag fed | cdc BAG !segno!|]


